assets/static/shop-logo-mobile.svg

<svg width="42" height="42" viewBox="0 0 42 42" fill="none" xmlns="http://www.w3.org/2000/svg">
<path d="M42 9.54545C42 7.01384 40.9943 4.58592 39.2042 2.7958C37.4141 1.00568 34.9862 0 32.4545 0H9.54545C7.01384 0 4.58592 1.00568 2.7958 2.7958C1.00568 4.58592 0 7.01384 0 9.54545V32.4545C0 34.9862 1.00568 37.4141 2.7958 39.2042C4.58592 40.9943 7.01384 42 9.54545 42H13.3636C13.87 42 14.3555 41.7989 14.7136 41.4408C15.0716 41.0828 15.2727 40.5972 15.2727 40.0909C15.2727 39.5846 15.0716 39.099 14.7136 38.741C14.3555 38.383 13.87 38.1818 13.3636 38.1818H9.54545C8.02649 38.1818 6.56973 37.5784 5.49566 36.5043C4.42159 35.4303 3.81818 33.9735 3.81818 32.4545V9.54545C3.81818 8.02649 4.42159 6.56973 5.49566 5.49566C6.56973 4.42159 8.02649 3.81818 9.54545 3.81818H32.4545C33.9735 3.81818 35.4303 4.42159 36.5043 5.49566C37.5784 6.56973 38.1818 8.02649 38.1818 9.54545V32.4545C38.1818 33.9735 37.5784 35.4303 36.5043 36.5043C35.4303 37.5784 33.9735 38.1818 32.4545 38.1818H28.6364C27.1174 38.1818 25.6606 37.5784 24.5866 36.5043C23.5125 35.4303 22.9091 33.9735 22.9091 32.4545C25.4407 32.4545 27.8686 31.4489 29.6587 29.6587C31.4489 27.8686 32.4545 25.4407 32.4545 22.9091V19.0909C32.4545 18.5846 32.2534 18.099 31.8954 17.741C31.5374 17.383 31.0518 17.1818 30.5455 17.1818H26.7273V11.4545C26.7273 10.9482 26.5261 10.4626 26.1681 10.1046C25.8101 9.74659 25.3245 9.54545 24.8182 9.54545C24.3119 9.54545 23.8263 9.74659 23.4683 10.1046C23.1102 10.4626 22.9091 10.9482 22.9091 11.4545V17.1818H19.0909V11.4545C19.0909 10.9482 18.8898 10.4626 18.5317 10.1046C18.1737 9.74659 17.6881 9.54545 17.1818 9.54545C16.6755 9.54545 16.1899 9.74659 15.8319 10.1046C15.4739 10.4626 15.2727 10.9482 15.2727 11.4545V17.1818H11.4545C10.9482 17.1818 10.4626 17.383 10.1046 17.741C9.74659 18.099 9.54545 18.5846 9.54545 19.0909V22.9091C9.54545 25.4407 10.5511 27.8686 12.3413 29.6587C14.1314 31.4489 16.5593 32.4545 19.0909 32.4545C19.0909 34.9862 20.0966 37.4141 21.8867 39.2042C23.6768 40.9943 26.1048 42 28.6364 42H32.4545C34.9862 42 37.4141 40.9943 39.2042 39.2042C40.9943 37.4141 42 34.9862 42 32.4545V9.54545ZM13.3636 22.9091V21H28.6364V22.9091C28.6364 24.4281 28.033 25.8848 26.9589 26.9589C25.8848 28.033 24.4281 28.6364 22.9091 28.6364H19.0909C17.5719 28.6364 16.1152 28.033 15.0411 26.9589C13.967 25.8848 13.3636 24.4281 13.3636 22.9091Z" fill="#7B76BB"/>
</svg>

<?xml version="1.0" encoding="utf-8"?>
<!-- Generator: Adobe Illustrator 24.0.3, SVG Export Plug-In . SVG Version: 6.00 Build 0)  -->
<svg version="1.1" id="Layer_1" xmlns="http://www.w3.org/2000/svg" xmlns:xlink="http://www.w3.org/1999/xlink" x="0px" y="0px"
	 width="42px" height="42px" viewBox="0 0 42 42" style="enable-background:new 0 0 42 42;" xml:space="preserve">
<style type="text/css">
	.st0{fill:#76BB85;}
</style>
<path class="st0" d="M42,9.5c0-2.5-1-5-2.8-6.7S35,0,32.5,0H9.5C7,0,4.6,1,2.8,2.8S0,7,0,9.5v22.9c0,2.5,1,5,2.8,6.7S7,42,9.5,42
	h3.8c0.5,0,1-0.2,1.4-0.6c0.4-0.4,0.6-0.8,0.6-1.3c0-0.5-0.2-1-0.6-1.3c-0.4-0.4-0.8-0.6-1.4-0.6H9.5c-1.5,0-3-0.6-4-1.7
	c-1.1-1.1-1.7-2.5-1.7-4V9.5c0-1.5,0.6-3,1.7-4s2.5-1.7,4-1.7h22.9c1.5,0,3,0.6,4,1.7c1.1,1.1,1.7,2.5,1.7,4v22.9c0,1.5-0.6,3-1.7,4
	c-1.1,1.1-2.5,1.7-4,1.7h-3.8c-1.5,0-3-0.6-4-1.7c-1.1-1.1-1.7-2.5-1.7-4c2.5,0,5-1,6.7-2.8c1.8-1.8,2.8-4.2,2.8-6.7v-3.8
	c0-0.5-0.2-1-0.6-1.3c-0.4-0.4-0.8-0.6-1.3-0.6h-3.8v-5.7c0-0.5-0.2-1-0.6-1.3c-0.4-0.4-0.8-0.6-1.3-0.6s-1,0.2-1.3,0.6
	c-0.4,0.4-0.6,0.8-0.6,1.3v5.7h-3.8v-5.7c0-0.5-0.2-1-0.6-1.3c-0.4-0.4-0.8-0.6-1.3-0.6s-1,0.2-1.3,0.6c-0.4,0.4-0.6,0.8-0.6,1.3
	v5.7h-3.8c-0.5,0-1,0.2-1.3,0.6c-0.4,0.4-0.6,0.8-0.6,1.3v3.8c0,2.5,1,5,2.8,6.7c1.8,1.8,4.2,2.8,6.7,2.8c0,2.5,1,5,2.8,6.7
	s4.2,2.8,6.7,2.8h3.8c2.5,0,5-1,6.7-2.8S42,35,42,32.5V9.5z M13.4,22.9V21h15.3v1.9c0,1.5-0.6,3-1.7,4s-2.5,1.7-4,1.7h-3.8
	c-1.5,0-3-0.6-4-1.7S13.4,24.4,13.4,22.9z"/>
</svg>
